X: 1560
T: Pek Sevdim Efendim
C: Hacı Fâik Bey
O: Turkey
F: http://compmusic.upf.edu/node/140
N: dugah--kar--hafif--pek_sevdim--haci_faik_bey
N: makam= dugah
N: form= kar
N: usul= hafif = 32/4
M: 32/4
L: 1/16
K: C _1/4B _7/8d  
Q: 1/4=56
%%MIDI tuningsystem comma53
^c6 _7/8B2 A8 B4 {c}B2 A2 {B}A4 A2 ^G2  | \
w:  Ten  na  dir  *  *  *  *  *  na   | 
F4 {G}F2 E2 F4 ^G4 A12 z4  | A8 A4 B4 c4 _3/4d4 d4 {e}d2 c2  | 
w:  dir  *  dir  *  *  *  ten    |  Det  de  re  dil  *  lâ   | 
c4 c2 B2 B2 A2 {B}A2 B2 c12 z4  | \
w:  dir  *  *  dir  *  *  *  *  ten    | 
_3/4d6 c2 B8 c4 {d}c2 B2 A8  | z4 ^c4 _7/8B4 A4 B6 A2 ^G4 A4  | 
w:  Ten  *  na  dir  *  *  *  na   |  dir  *  *  ten  *  nen   | 
^G6 z2 A4 _7/8B4 A8 B4 ^c4  | _7/8B4 A4 ^G4 B2 A2 A12 z4  | \
w:  na  be  li  yâ  ri   |  men    | 
A6 G2 e4 _3/4d2 c2 c4 {d}c2 B2 A8  | 
w:  Pek  *  sev *  *  dim_ *  e *  fen  | 
B6 A2 c4 {c}B2 A2 A16  | A6 B2 c4 _3/4d4 d2 c4 B2 A2 B2 c2 d2  | \
w:  dim  *  se *  ni  *  gâ  |  yet *  le  be ğen  | 
B4 c4 B4 {e}_3/4d2 c2 c12 z4  | 
w:  dim    | 
c6 _3/4d2 d6 c2 c4 {d}c2 B2 A6 z2  | \
w:  Gel  *  gay *  re  *  kı *  yas   | 
^c6 _7/8B2 B4 {c}B2 A2 B3 A ^G2 A2 G6 z2  | \
w:  et *  me  *  be *  ni   | 
A2 _7/8B4 A2 ^c4 {=d}c2 B2 B4 A4 ^G4 {A}B2 A2  | 
w:  câ *  *  nım  *  e *  fen  | 
A8 ^G4 _7/8B2 A2 A12 z4  | c4 _3/4d8 c4 e2 d2 c2 d2 c4 B4  | \
w:  dim    |  Yâr   | 
z4 _3/4d4 c4 B4 A4 {B}A2 G2 A4 B4  | 
w:  yâr   | 
c8 c4 _3/4d4 c8 d4 e4  | _3/4d4 c4 B4 {e}d2 c2 c12 z4  | \
w:  *  be  li  yâ  ri   |  men    | 
_3/4d6 c2 B8 c4 {d}c2 B2 A8  | z4 ^c4 _7/8B4 A4 B6 A2 ^G4 A4  | 
w:  Dost   |  dost   | 
^G6 z2 A4 _7/8B4 A8 B4 ^c4  | _7/8B4 A4 ^G4 {c}B2 A2 A12 z4  | \
w:  *  be  li  mî  ri   |  men    | 
=d8 d4 e2 f2 e2 d2 d2 ^c2 c4 _7/8B2 A2  | 
w:  Bin  cân_ *  *  i *  le  *  â  | 
=d4 {e}d2 ^c2 c2 d2 c2 _7/8B2 B A B c B2 A2 A6 z2  | \
w:  şık  *  *  *  o *  la *  lı   | 
A8 _7/8B4 ^c4 =d6 e2 f4 e2 d2  | 
w:  sen  gi bi  mâ  | 
e4 =d4 ^c4 {f}e2 d2 d12 z4  | c4 {^c}=c2 _3/4d2 e2 f2 e2 f2 _1/4a2 g2 f2 e2 e4 {^1/4f}e2 d2  | 
w:  he    |  Gön *  *  *  lüm *  *  *  de  *  ke *  der   | 
c6 _3/4d2 d4 {e}d2 c2 c3/2B/ A2 B2 c2 B4 z4  | \
w:  kal *  ma *  dı  *  ey   | 
c6 B2 e2 _3/4d2 {e}d2 c2 c6 B2 A2 B2 c2 d2  | 
w:  zülf_ *  ü  *  *  ke *  men  | 
B4 c4 B4 {e}_3/4d2 c2 c12 z4  | c4 _3/4d8 c4 e4 d2 c2 d2 c2 B4  | \
w:  dim    |  Ah   | 
z4 _3/4d4 c4 B4 A4 {B}A2 G2 A4 B4  | 
w:  ah   | 
c8 c4 _3/4d4 c8 d4 e4  | _3/4d4 c4 B4 {e}d2 c2 c12 z4  | \
w:  *  be  li  ya  ri   |  men    | 
_3/4d6 c2 B8 c4 {d}c2 B2 A8  | z4 ^c4 _7/8B4 A4 B6 A2 ^G4 A4  | 
w:  Hey   |  hey   | 
^G6 z2 A4 _7/8B4 A8 B4 ^c4  | _7/8B4 A4 ^G4 {c}B2 A2 A12 z4  | \
w:  *  be  li  mî  ri   |  men    | 
^G4 A4 A8 ^c2 _7/8B2 A2 G2 ^1/4F8  | 
w:  Ten  *  *  dir  *  *  *  ten   | 
^1/4F4 {G}F2 E2 F4 ^G4 A12 z4  | A6 G2 _3/4d4 d2 c2 c6 d2 c2 B2 A4  | \
w:  dir  *  *  *  dir  *  ten   |  na   *  De  re  *  dil  *  li   | 
c6 B2 B4 B2 A2 A12 z4  | 
w:  dir  *  dir  *  *  ten    | 
c4 _3/4d8 c4 d4 {e}d2 c2 d2 c2 B2 A2  | \
w:  Ten  *  *  dir  *  *  *  ten   | 
z4 c4 c2 _3/4d2 c2 B2 c4 {d}c2 B2 A8  | \
w:  dir  *  *  *  *  dir  *  *  *  ten   | 
A6 G2 _3/4d4 d2 c2 c6 d2 c2 B2 A4  | 
w:  det  *  de  re  *  dil  *  lâ   | 
c6 B2 B4 {c}B2 A2 A12 z4  | z12  | G2A2B2 c2_3/4d2e2  | \
w:  dir  *  dir  *  *  *  ten    |  |  Et tim  bu  Dü gâh   | 
c2_3/4d2c2 B2A4  | BAB2_3/4d2 dcc BBA  | 
w:  Kâ *  rı  â hib  |  bâ *  *  ya  he *  diy  | 
A4_3/4dc BAG4  | G2A2B2 c2_3/4d2e2  | \
w:  ye    |  Et tim  bu  Dü gâh   | 
c2_3/4d2c2 B2A4  | BAB2_3/4d2 dcc BBA  | 
w:  Kâ *  rı  â hib  |  bâ *  *  ya  he *  diy  | 
A4=d2 ^ced4  | =d2e2f2 fee2ed  | =d4de d^c_7/8B AB2  | 
w:  ye   SAZ  |  Kim  din ler_ i *  se   |  Fâ i *  ki  *  yâd_  | 
^c4e=d c_7/8Bc BBA  | A4=d^c _7/8BAG4  | \
w:  ey le *  me *  li  |  dir    | 
^F2G2A2 A2_7/8B3A  | 
w:  Kim  din ler_ i se   | 
=d2d ^cc_7/8B BAA4  | _7/8B2B Ae=d d^cc BBA  | \
w:  Fâ *  *  i *  ki  *  yâd_  |  ey *  *  le *  me *  li  | 
A4=d2 ^ced4  | 
w:  dir   SAZ  | 
^c2=d2e2 e2e2ed  | e2^f2g2 e2=d2ed  | \
w:  Er bâ bı  te ren  |  nüm  *  o ku yup   | 
^c2c =dc_7/8B BAA4  | 
w:  dâ *  *  i *  mül_ *  ev  | 
=d2e4 e^fg4  | g2g2g2 g2g2g^f  | a2a gg^f fe=d4  | \
w:  kat   *  SAZ  |  Er bâ bı  te ren  |  nüm  *  *  o *  ku *  yup   | 
g2g ^fa2 gfe4  | 
w:  dâ *  *  i mül_ *  ev  | 
=d2e4 egf4  | f2f2f2 fef2fe  | a2a ggf fee2e_3/4d  | 
w:  kat   *  SAZ  |  Rûh_ i  se le *  fi   |  aşk  *  *  i *  le  *  şâd_  | 
c2_3/4d2dc cdc B/A/Bc  | B2c8z2  | c2_3/4d2d2 dcc2cB  | 
w:  ey *  le *  me *  li  |  dir    |  Rûh_ i  se le *  fi   | 
B4c2 cBA4  | A2^G2A2 _7/8B^cc BBA  | \
w:  aşk  i le  *  şâd_  |  ey *  le me *  li  | 
A8-A2z2  | z256  | c4_3/4d8c4 e2d2c2d2 c4B4 z4d4 c4B4 A4{B}A2G2 A4B4 c8 c4d4 c8 d4e4 d4c4 B4{e}d2c2 c12z4 d6c2 B8 c4{d}c2B2 A8 z4^c4 _7/8B4A4 B6A2 ^G4A4 G6z2 A4B4 A8 B4c4 B4A4 G4{=c}B2A2 A12z4  | 
w:  dir    |  |  Yâr  *  *  *  *  *  *  *  *  yâr  *  *  *  *  *  *  *  *  *  be  li  yâ  ri  *  men   *  *  *  *  *  *  Dost  *  *  *  *  *  *  *  dost  *  *  *  *  *  *  *  be  li  mî  ri  *  men    | 
|


